X: 10720
T: Doyle's
R: polka
M: 2/4
K: Dmajor
|:FA D>E|FA BA|FA DE|FE E2|
FA D>E|FA BA|FA de|fd d2:|
|:DF/A/ BA|dc/d/ BA|FA DE|FE E2|
DF/A/ BA|dc/d/ BA|FA de|fd d2:|

